assets/icons/24px/stroke/tree-map-right-24px.svg

<svg width="24" height="24" viewBox="0 0 24 24" fill="none" xmlns="http://www.w3.org/2000/svg">
<g clip-path="url(#clip0_878_21935)">
<g clip-path="url(#clip1_878_21935)">
<path fill-rule="evenodd" clip-rule="evenodd" d="M11 13V14.5C11 14.522 11 14.544 11 14.5658C10.9999 15.4523 10.9999 16.2161 11.0821 16.8278C11.1703 17.4833 11.369 18.1117 11.8787 18.6213C12.3883 19.131 13.0167 19.3297 13.6722 19.4179C14.2839 19.5001 15.0477 19.5 15.9342 19.5L16 19.5V17.5C15.0289 17.5 14.4012 17.4979 13.9387 17.4357C13.505 17.3774 13.369 17.2832 13.2929 17.2071C13.2168 17.131 13.1226 16.995 13.0643 16.5613C13.0021 16.0988 13 15.4711 13 14.5L13 9.5C13 8.52892 13.0021 7.90121 13.0643 7.4387C13.1226 7.00496 13.2168 6.86901 13.2929 6.79289C13.369 6.71676 13.505 6.62262 13.9387 6.5643C14.4012 6.50212 15.0289 6.5 16 6.5V4.5L15.9342 4.49999C15.0477 4.49994 14.2839 4.4999 13.6722 4.58214C13.0167 4.67027 12.3883 4.86901 11.8787 5.37867C11.369 5.88834 11.1703 6.51669 11.0821 7.1722C10.9999 7.78386 10.9999 8.54768 11 9.43416L11 11H8V13H11Z" fill="white"/>
<path fill-rule="evenodd" clip-rule="evenodd" d="M4 12C4 12.8284 4.67157 13.5 5.5 13.5C6.32843 13.5 7 12.8284 7 12C7 11.1716 6.32843 10.5 5.5 10.5C4.67157 10.5 4 11.1716 4 12ZM5.5 15.5C3.567 15.5 2 13.933 2 12C2 10.067 3.567 8.5 5.5 8.5C7.433 8.5 9 10.067 9 12C9 13.933 7.433 15.5 5.5 15.5Z" fill="white"/>
<path fill-rule="evenodd" clip-rule="evenodd" d="M17 18.5C17 19.3284 17.6716 20 18.5 20C19.3284 20 20 19.3284 20 18.5C20 17.6716 19.3284 17 18.5 17C17.6716 17 17 17.6716 17 18.5ZM18.5 22C16.567 22 15 20.433 15 18.5C15 16.567 16.567 15 18.5 15C20.433 15 22 16.567 22 18.5C22 20.433 20.433 22 18.5 22Z" fill="white"/>
<path fill-rule="evenodd" clip-rule="evenodd" d="M17 5.5C17 6.32843 17.6716 7 18.5 7C19.3284 7 20 6.32843 20 5.5C20 4.67157 19.3284 4 18.5 4C17.6716 4 17 4.67157 17 5.5ZM18.5 9C16.567 9 15 7.433 15 5.5C15 3.567 16.567 2 18.5 2C20.433 2 22 3.567 22 5.5C22 7.433 20.433 9 18.5 9Z" fill="white"/>
</g>
</g>
<defs>
<clipPath id="clip0_878_21935">
<rect width="24" height="24" fill="white"/>
</clipPath>
<clipPath id="clip1_878_21935">
<rect width="24" height="24" fill="white" transform="translate(0 24) rotate(-90)"/>
</clipPath>
</defs>
</svg>

<svg width="24" height="24" fill="none" xmlns="http://www.w3.org/2000/svg"><g clip-path="url(#clip0_878_21935)"><g clip-path="url(#clip1_878_21935)" fill-rule="evenodd" clip-rule="evenodd" fill="#fff"><path d="M11 13v1.566c0 .886 0 1.65.082 2.262.088.655.287 1.284.797 1.793.51.51 1.138.709 1.793.797.612.082 1.376.082 2.262.082H16v-2c-.971 0-1.599-.002-2.061-.064-.434-.059-.57-.153-.646-.229-.076-.076-.17-.212-.229-.646C13.002 16.1 13 15.471 13 14.5v-5c0-.971.002-1.599.064-2.061.059-.434.153-.57.229-.646.076-.076.212-.17.646-.229C14.4 6.502 15.029 6.5 16 6.5v-2h-.066c-.886 0-1.65 0-2.262.082-.655.088-1.284.287-1.793.797-.51.51-.709 1.138-.797 1.793C11 7.784 11 8.548 11 9.434V11H8v2h3z"/><path d="M4 12a1.5 1.5 0 1 0 3 0 1.5 1.5 0 0 0-3 0zm1.5 3.5a3.5 3.5 0 1 1 0-7 3.5 3.5 0 0 1 0 7zm11.5 3a1.5 1.5 0 1 0 3 0 1.5 1.5 0 0 0-3 0zm1.5 3.5a3.5 3.5 0 1 1 0-7 3.5 3.5 0 0 1 0 7zM17 5.5a1.5 1.5 0 1 0 3 0 1.5 1.5 0 0 0-3 0zM18.5 9a3.5 3.5 0 1 1 0-7 3.5 3.5 0 0 1 0 7z"/></g></g><defs><clipPath id="clip0_878_21935"><path fill="#fff" d="M0 0H24V24H0z"/></clipPath><clipPath id="clip1_878_21935"><path fill="#fff" transform="rotate(-90 12 12)" d="M0 0H24V24H0z"/></clipPath></defs></svg>
